X:5943
T:Gan Ainm
R:Reel
S:
H:
N:
D:
Z:Adrian Scahill
M:4/4
L:1/8
K:G
BEED EDB,E|DG,B,E DEGA|BEED EDB,E|1 DEGB A2GA:|2 DEGB AGEG||\
AGGF GBdB|cBAB cdec|ABBA GABd|cABG AG (3EFG|\
DGGF GBdB|cBAB cdef|gedB c2ge|dBGB (3ABA GA||


